OBS Studio/Fluent Dark Grey/sources/window.svg

<svg viewBox="64 64 896 960" xmlns="http://www.w3.org/2000/svg"><path d="m772 64c25 1e-4 48.917 5.0834 71.75 15.25 22.833 10.167 42.833 23.833 60 41s30.833 37.167 41 60 15.25 46.75 15.25 71.75v484c0 8.667-3.167 16.167-9.5 22.5s-13.833 9.5-22.5 9.5-16.167-3.167-22.5-9.5-9.5-13.833-9.5-22.5v-416h-768v450.5c0 17.333 3.5 33.583 10.5 48.75s16.333 28.417 28 39.75 25.25 20.333 40.75 27 31.75 10 48.75 10h288c8.667 0 16.167 3.167 22.5 9.5s9.5 13.833 9.5 22.5-3.167 16.167-9.5 22.5-13.833 9.5-22.5 9.5h-292c-25 0-48.917-5.083-71.75-15.25s-42.833-23.833-60-41-30.833-37.167-41-60-15.25-46.75-15.25-71.75v-520c0-25 5.0833-48.917 15.25-71.75s23.833-42.833 41-60 37.167-30.833 60-41c22.833-10.167 46.75-15.25 71.75-15.25zm124 192v-2.5c0-16.667-3.417-32.583-10.25-47.75s-16-28.5-27.5-40-24.833-20.667-40-27.5-31.083-10.25-47.75-10.25h-517c-16.667 0-32.583 3.417-47.75 10.25s-28.5 16-40 27.5-20.667 24.833-27.5 40-10.25 31.083-10.25 47.75v2.5zm64 608c0 8.667-3.167 16.167-9.5 22.5s-13.833 9.5-22.5 9.5h-96v96c0 8.67-3.167 16.17-9.5 22.5s-13.833 9.5-22.5 9.5-16.167-3.17-22.5-9.5-9.5-13.83-9.5-22.5v-96h-96c-8.667 0-16.167-3.167-22.5-9.5s-9.5-13.833-9.5-22.5 3.167-16.167 9.5-22.5 13.833-9.5 22.5-9.5h96v-96c0-8.667 3.167-16.167 9.5-22.5s13.833-9.5 22.5-9.5 16.167 3.167 22.5 9.5 9.5 13.833 9.5 22.5v96h96c8.667 0 16.167 3.167 22.5 9.5s9.5 13.833 9.5 22.5z" fill="#fff"></path></svg>

<!-- Exported by Character Map UWP -->
<svg height="100%" viewBox="64 64 896 960" width="100%" xmlns="http://www.w3.org/2000/svg" xmlns:xlink="http://www.w3.org/1999/xlink">
  <path d="M772,64C797,64.0001 820.917,69.0834 843.75,79.25C866.583,89.4167 886.583,103.083 903.75,120.25C920.917,137.417 934.583,157.417 944.75,180.25C954.917,203.083 960,227 960,252L960,736C960,744.667 956.833,752.167 950.5,758.5C944.167,764.833 936.667,768 928,768C919.333,768 911.833,764.833 905.5,758.5C899.167,752.167 896,744.667 896,736L896,320L128,320L128,770.5C128,787.833 131.5,804.083 138.5,819.25C145.5,834.417 154.833,847.667 166.5,859C178.167,870.333 191.75,879.333 207.25,886C222.75,892.667 239,896 256,896L544,896C552.667,896 560.167,899.167 566.5,905.5C572.833,911.833 576,919.333 576,928C576,936.667 572.833,944.167 566.5,950.5C560.167,956.833 552.667,960 544,960L252,960C227,960 203.083,954.917 180.25,944.75C157.417,934.583 137.417,920.917 120.25,903.75C103.083,886.583 89.4167,866.583 79.25,843.75C69.0833,820.917 64,797 64,772L64,252C64,227 69.0833,203.083 79.25,180.25C89.4167,157.417 103.083,137.417 120.25,120.25C137.417,103.083 157.417,89.4167 180.25,79.25C203.083,69.0834 227,64.0001 252,64ZM896,256L896,253.5C896,236.833 892.583,220.917 885.75,205.75C878.917,190.583 869.75,177.25 858.25,165.75C846.75,154.25 833.417,145.083 818.25,138.25C803.083,131.417 787.167,128 770.5,128L253.5,128C236.833,128 220.917,131.417 205.75,138.25C190.583,145.083 177.25,154.25 165.75,165.75C154.25,177.25 145.083,190.583 138.25,205.75C131.417,220.917 128,236.833 128,253.5L128,256ZM960,864C960,872.667 956.833,880.167 950.5,886.5C944.167,892.833 936.667,896 928,896L832,896L832,992C832,1000.67 828.833,1008.17 822.5,1014.5C816.167,1020.83 808.667,1024 800,1024C791.333,1024 783.833,1020.83 777.5,1014.5C771.167,1008.17 768,1000.67 768,992L768,896L672,896C663.333,896 655.833,892.833 649.5,886.5C643.167,880.167 640,872.667 640,864C640,855.333 643.167,847.833 649.5,841.5C655.833,835.167 663.333,832 672,832L768,832L768,736C768,727.333 771.167,719.833 777.5,713.5C783.833,707.167 791.333,704 800,704C808.667,704 816.167,707.167 822.5,713.5C828.833,719.833 832,727.333 832,736L832,832L928,832C936.667,832 944.167,835.167 950.5,841.5C956.833,847.833 960,855.333 960,864Z" fill="#FFFFFF" fill-opacity="1">
  </path>
</svg>
